static/img/kroki/ebfa9fcc242072d64fcde6d68d46fcfd.svg

<?xml version="1.0" encoding="us-ascii" standalone="no"?><svg xmlns="http://www.w3.org/2000/svg" xmlns:xlink="http://www.w3.org/1999/xlink" contentStyleType="text/css" height="374px" preserveAspectRatio="none" style="width:315px;height:374px;" version="1.1" viewBox="0 0 315 374" width="315px" zoomAndPan="magnify"><defs/><g><!--class gcp_resource--><g id="elem_gcp_resource"><rect codeLine="23" fill="#3D176E" height="39.7891" id="gcp_resource" rx="2.5" ry="2.5" style="stroke:#000D19;stroke-width:0.5;" width="150" x="7" y="167.79"/><ellipse cx="22" cy="187.6845" fill="#ADD1B2" rx="11" ry="11" style="stroke:#181818;stroke-width:1.0;"/><path d="M24.9688,193.3252 Q24.3906,193.622 23.75,193.7627 Q23.1094,193.9189 22.4063,193.9189 Q19.9063,193.9189 18.5781,192.2783 Q17.2656,190.622 17.2656,187.497 Q17.2656,184.372 18.5781,182.7158 Q19.9063,181.0595 22.4063,181.0595 Q23.1094,181.0595 23.75,181.2158 Q24.4063,181.372 24.9688,181.6689 L24.9688,184.3877 Q24.3438,183.8095 23.75,183.5439 Q23.1563,183.2627 22.5313,183.2627 Q21.1875,183.2627 20.5,184.3408 Q19.8125,185.4033 19.8125,187.497 Q19.8125,189.5908 20.5,190.6689 Q21.1875,191.7314 22.5313,191.7314 Q23.1563,191.7314 23.75,191.4658 Q24.3438,191.1845 24.9688,190.6064 L24.9688,193.3252 Z " fill="#000000"/><text fill="#D9B8FF" font-family="Helvetica" font-size="17" lengthAdjust="spacing" textLength="108" x="41" y="193.5698">gcp_resource</text></g><!--class gcp_snapshot--><g id="elem_gcp_snapshot"><rect codeLine="26" fill="#3D176E" height="39.7891" id="gcp_snapshot" rx="2.5" ry="2.5" style="stroke:#000D19;stroke-width:0.5;" width="154" x="88" y="328.58"/><ellipse cx="103" cy="348.4745" fill="#ADD1B2" rx="11" ry="11" style="stroke:#181818;stroke-width:1.0;"/><path d="M105.9688,354.1152 Q105.3906,354.412 104.75,354.5527 Q104.1094,354.7089 103.4063,354.7089 Q100.9063,354.7089 99.5781,353.0683 Q98.2656,351.412 98.2656,348.287 Q98.2656,345.162 99.5781,343.5058 Q100.9063,341.8495 103.4063,341.8495 Q104.1094,341.8495 104.75,342.0058 Q105.4063,342.162 105.9688,342.4589 L105.9688,345.1777 Q105.3438,344.5995 104.75,344.3339 Q104.1563,344.0527 103.5313,344.0527 Q102.1875,344.0527 101.5,345.1308 Q100.8125,346.1933 100.8125,348.287 Q100.8125,350.3808 101.5,351.4589 Q102.1875,352.5214 103.5313,352.5214 Q104.1563,352.5214 104.75,352.2558 Q105.3438,351.9745 105.9688,351.3964 L105.9688,354.1152 Z " fill="#000000"/><text fill="#D9B8FF" font-family="Helvetica" font-size="17" lengthAdjust="spacing" textLength="112" x="122" y="354.3598">gcp_snapshot</text></g><!--class resource--><g id="elem_resource"><rect codeLine="29" fill="#3D176E" height="39.7891" id="resource" rx="2.5" ry="2.5" style="stroke:#000D19;stroke-width:0.5;" width="113" x="108.5" y="7"/><ellipse cx="123.5" cy="26.8945" fill="#ADD1B2" rx="11" ry="11" style="stroke:#181818;stroke-width:1.0;"/><path d="M126.4688,32.5352 Q125.8906,32.832 125.25,32.9727 Q124.6094,33.1289 123.9063,33.1289 Q121.4063,33.1289 120.0781,31.4883 Q118.7656,29.832 118.7656,26.707 Q118.7656,23.582 120.0781,21.9258 Q121.4063,20.2695 123.9063,20.2695 Q124.6094,20.2695 125.25,20.4258 Q125.9063,20.582 126.4688,20.8789 L126.4688,23.5977 Q125.8438,23.0195 125.25,22.7539 Q124.6563,22.4727 124.0313,22.4727 Q122.6875,22.4727 122,23.5508 Q121.3125,24.6133 121.3125,26.707 Q121.3125,28.8008 122,29.8789 Q122.6875,30.9414 124.0313,30.9414 Q124.6563,30.9414 125.25,30.6758 Q125.8438,30.3945 126.4688,29.8164 L126.4688,32.5352 Z " fill="#000000"/><text fill="#D9B8FF" font-family="Helvetica" font-size="17" lengthAdjust="spacing" textLength="71" x="142.5" y="32.7798">resource</text></g><!--class snapshot--><g id="elem_snapshot"><rect codeLine="32" fill="#3D176E" height="39.7891" id="snapshot" rx="2.5" ry="2.5" style="stroke:#000D19;stroke-width:0.5;" width="117" x="191.5" y="167.79"/><ellipse cx="206.5" cy="187.6845" fill="#ADD1B2" rx="11" ry="11" style="stroke:#181818;stroke-width:1.0;"/><path d="M209.4688,193.3252 Q208.8906,193.622 208.25,193.7627 Q207.6094,193.9189 206.9063,193.9189 Q204.4063,193.9189 203.0781,192.2783 Q201.7656,190.622 201.7656,187.497 Q201.7656,184.372 203.0781,182.7158 Q204.4063,181.0595 206.9063,181.0595 Q207.6094,181.0595 208.25,181.2158 Q208.9063,181.372 209.4688,181.6689 L209.4688,184.3877 Q208.8438,183.8095 208.25,183.5439 Q207.6563,183.2627 207.0313,183.2627 Q205.6875,183.2627 205,184.3408 Q204.3125,185.4033 204.3125,187.497 Q204.3125,189.5908 205,190.6689 Q205.6875,191.7314 207.0313,191.7314 Q207.6563,191.7314 208.25,191.4658 Q208.8438,191.1845 209.4688,190.6064 L209.4688,193.3252 Z " fill="#000000"/><text fill="#D9B8FF" font-family="Helvetica" font-size="17" lengthAdjust="spacing" textLength="75" x="225.5" y="193.5698">snapshot</text></g><!--reverse link resource to gcp_resource--><g id="link_resource_gcp_resource"><path codeLine="35" d="M146.6529,63.0028 C130.7029,93.5228 108.02,136.9 92.05,167.46 " fill="none" id="resource-backto-gcp_resource" style="stroke:#FFAF37;stroke-width:2.0;"/><polygon fill="none" points="154.99,47.05,141.3353,60.2238,151.9705,65.7819,154.99,47.05" style="stroke:#FFAF37;stroke-width:2.0;"/></g><!--reverse link gcp_resource to gcp_snapshot--><g id="link_gcp_resource_gcp_snapshot"><path codeLine="36" d="M100.3471,223.7928 C116.2971,254.3128 138.98,297.69 154.95,328.25 " fill="none" id="gcp_resource-backto-gcp_snapshot" style="stroke:#FFAF37;stroke-width:2.0;"/><polygon fill="none" points="92.01,207.84,95.0295,226.5719,105.6647,221.0138,92.01,207.84" style="stroke:#FFAF37;stroke-width:2.0;"/></g><!--reverse link snapshot to gcp_snapshot--><g id="link_snapshot_gcp_snapshot"><path codeLine="37" d="M231.2541,223.7088 C214.9141,254.2288 191.65,297.69 175.29,328.25 " fill="none" id="snapshot-backto-gcp_snapshot" style="stroke:#FFAF37;stroke-width:2.0;"/><polygon fill="none" points="239.75,207.84,225.9645,220.8768,236.5437,226.5408,239.75,207.84" style="stroke:#FFAF37;stroke-width:2.0;"/></g><!--reverse link resource to snapshot--><g id="link_resource_snapshot"><path codeLine="38" d="M183.7459,62.9188 C200.0859,93.4388 223.35,136.9 239.71,167.46 " fill="none" id="resource-backto-snapshot" style="stroke:#FFAF37;stroke-width:2.0;"/><polygon fill="none" points="175.25,47.05,178.4563,65.7508,189.0355,60.0868,175.25,47.05" style="stroke:#FFAF37;stroke-width:2.0;"/></g><!--SRC=[XP1VJuCm5CNV-ocQx9a4N9IH-399ZBuinlbk2hs51cZ9RN6PVxwxuXoMmhRNStuzvzoMaWE5fhLxsa2J0HfYAgbQXgoXQqIzItMjaIw4O68P- -QzLlOYi64Dq0Uety3AdFd4IodpIe4nzCgnxbXU5QWxnG_n5faoFnOewr1fpOnPMuiowomuOtYIhOJmIJzqiUHHV0CJJ2C7_4F2CEHHuYCNgyxUFH1R-GuqSZzjeorCPaugVgcpAtl26JavzEYVtFZ4E9UgeDUEzdpOX0fmf6zBnlMkfmMhZLjZB21eksyXdLm5oOgBU1P-F0MJlFywMkJjAuBH7UP0FmZvSdIZM6jARLrzZXrp0t7x6GJ1g82CslxzOm0PacOyxzsWVmC0]--></g></svg>

<svg xmlns="http://www.w3.org/2000/svg" width="315" height="374" viewBox="0 0 315 374"><rect width="150" height="39.789" x="7" y="167.79" fill="#3D176E" rx="2.5" ry="2.5" style="stroke:#000d19;stroke-width:.5"/><circle cx="22" cy="187.685" r="11" fill="#ADD1B2" style="stroke:#181818;stroke-width:1"/><path d="M24.969 193.325q-.578.297-1.219.438-.64.156-1.344.156-2.5 0-3.828-1.64-1.312-1.657-1.312-4.782t1.312-4.781q1.328-1.656 3.828-1.656.703 0 1.344.156.656.156 1.219.453v2.719q-.625-.578-1.219-.844-.594-.281-1.219-.281-1.343 0-2.031 1.078-.687 1.062-.687 3.156t.687 3.172q.688 1.062 2.031 1.062.625 0 1.219-.265.594-.281 1.219-.86z"/><text x="41" y="193.57" fill="#D9B8FF" font-family="Helvetica" font-size="17" textLength="108">gcp_resource</text><rect width="154" height="39.789" x="88" y="328.58" fill="#3D176E" rx="2.5" ry="2.5" style="stroke:#000d19;stroke-width:.5"/><circle cx="103" cy="348.474" r="11" fill="#ADD1B2" style="stroke:#181818;stroke-width:1"/><path d="M105.969 354.115q-.578.297-1.219.438-.64.156-1.344.156-2.5 0-3.828-1.64-1.312-1.657-1.312-4.782t1.312-4.781q1.328-1.656 3.828-1.656.703 0 1.344.156.656.156 1.219.453v2.719q-.625-.579-1.219-.844-.594-.281-1.219-.281-1.344 0-2.031 1.078-.687 1.062-.687 3.156t.687 3.172q.688 1.062 2.031 1.062.625 0 1.219-.265.594-.281 1.219-.86z"/><text x="122" y="354.36" fill="#D9B8FF" font-family="Helvetica" font-size="17" textLength="112">gcp_snapshot</text><rect width="113" height="39.789" x="108.5" y="7" fill="#3D176E" rx="2.5" ry="2.5" style="stroke:#000d19;stroke-width:.5"/><circle cx="123.5" cy="26.895" r="11" fill="#ADD1B2" style="stroke:#181818;stroke-width:1"/><path d="M126.469 32.535q-.578.297-1.219.438-.64.156-1.344.156-2.5 0-3.828-1.64-1.312-1.657-1.312-4.782t1.312-4.781q1.328-1.656 3.828-1.656.703 0 1.344.156.656.156 1.219.453v2.719q-.625-.578-1.219-.844-.594-.281-1.219-.281-1.344 0-2.031 1.078-.687 1.062-.687 3.156t.687 3.172q.688 1.062 2.031 1.062.625 0 1.219-.265.594-.281 1.219-.86z"/><text x="142.5" y="32.78" fill="#D9B8FF" font-family="Helvetica" font-size="17" textLength="71">resource</text><rect width="117" height="39.789" x="191.5" y="167.79" fill="#3D176E" rx="2.5" ry="2.5" style="stroke:#000d19;stroke-width:.5"/><circle cx="206.5" cy="187.685" r="11" fill="#ADD1B2" style="stroke:#181818;stroke-width:1"/><path d="M209.469 193.325q-.578.297-1.219.438-.64.156-1.344.156-2.5 0-3.828-1.64-1.312-1.657-1.312-4.782t1.312-4.781q1.328-1.656 3.828-1.656.703 0 1.344.156.656.156 1.219.453v2.719q-.625-.578-1.219-.844-.594-.281-1.219-.281-1.344 0-2.031 1.078-.687 1.062-.687 3.156t.687 3.172q.688 1.062 2.031 1.062.625 0 1.219-.265.594-.281 1.219-.86z"/><text x="225.5" y="193.57" fill="#D9B8FF" font-family="Helvetica" font-size="17" textLength="75">snapshot</text><g fill="none"><path d="M146.653 63.003C130.703 93.523 108.02 136.9 92.05 167.46" style="stroke:#ffaf37;stroke-width:2"/><path d="m154.99 47.05-13.655 13.174 10.635 5.558z" style="stroke:#ffaf37;stroke-width:2"/></g><g fill="none"><path d="M100.347 223.793c15.95 30.52 38.633 73.897 54.603 104.457" style="stroke:#ffaf37;stroke-width:2"/><path d="m92.01 207.84 3.02 18.732 10.635-5.558z" style="stroke:#ffaf37;stroke-width:2"/></g><path fill="none" d="M231.254 223.709c-16.34 30.52-39.604 73.981-55.964 104.541m64.46-120.41-13.786 13.037 10.58 5.664zM183.746 62.919c16.34 30.52 39.604 73.981 55.964 104.541M175.25 47.05l3.206 18.7 10.58-5.663z" style="stroke:#ffaf37;stroke-width:2"/></svg>
